X:15601
T:Friday Hill
M:6/8
C:David Linton <djl@colourcountry.net>
K:G
P:A
d| gdB ecA dBG FGA |1,3 Bcd efg aeg fed :|2,4 Bcd efg DGF G2 :|
P:B
K:D
A| dcd ecA fef gec |1,3 afd bag fed cBA :|2 afd BAG ABc d2 :|4 afd BAG ABc def ||

